svgs/sharp-light/user-nurse.svg

<svg xmlns="http://www.w3.org/2000/svg" viewBox="0 0 448 512"><!--! Font Awesome Pro 6.6.0 by @fontawesome - https://fontawesome.com License - https://fontawesome.com/license (Commercial License) Copyright 2024 Fonticons, Inc. --><path d="M128 128l0-57.8 96-36 96 36 0 57.8 0 16-192 0 0-16zM96 160l0 16c0 70.7 57.3 128 128 128s128-57.3 128-128l0-16 0-32 0-80L224 0 96 48l0 80 0 32zm224 16c0 53-43 96-96 96s-96-43-96-96l192 0zM200.7 445.9L224 470.7l23.3-24.8L335.7 352l25.2 0 42.7 128L44.4 480 87.1 352l25.2 0 88.4 93.9zM384 320l-62.1 0L246 400.7 224 424l-22-23.3L126.1 320 64 320 10.7 480 0 512l33.7 0 380.5 0 33.7 0-10.7-32L384 320zM208 48l0 24-24 0 0 32 24 0 0 24 32 0 0-24 24 0 0-32-24 0 0-24-32 0z"/></svg>

<svg xmlns="http://www.w3.org/2000/svg" viewBox="0 0 448 512"><!--! Font Awesome Pro 6.4.0 by @fontawesome - https://fontawesome.com License - https://fontawesome.com/license (Commercial License) Copyright 2023 Fonticons, Inc. --><path d="M128 128V70.2l96-36 96 36V128v16H128V128zM96 160v16c0 70.7 57.3 128 128 128s128-57.3 128-128V160 128 48L224 0 96 48v80 32zm224 16c0 53-43 96-96 96s-96-43-96-96H320zM200.7 445.9L224 470.7l23.3-24.8L335.7 352h25.2l42.7 128H44.4L87.1 352h25.2l88.4 93.9zM384 320H321.9L246 400.7 224 424l-22-23.3L126.1 320H64L10.7 480 0 512H33.7 414.3 448l-10.7-32L384 320zM208 48V72H184v32h24v24h32V104h24V72H240V48H208z"/></svg>
